X:16025
T:Peacock's March
R:March
C:John Peacock 1756-1817
O:England; Northumbria
Z:Paul Hardy's Session Tunebook 2022 (see www.paulhardy.net). Creative Commons cc by-nc-sa licenced.
M:4/4
L:1/8
Q:1/4=120
K:G
de/f/|"G"g2 d>d d2 B>A|B2 G>G G2 AB|"Am"cBAG "Em"edcB|"D"A>GA>G A2 de/f/|
"G"g2 d>d d2 B>A|B2 G>G G2 A2|Bd de/c/ "D7"B2 A2|"G"G2 G>G G2:|
|:d>B|"D"A2 A>A "Am"AGAB|"C"cB cd/e/ "D7"d2 c2|"Am"A/G/A/B/ "D7"c/d/e/f/ "G"gdBG|"D"A2 A>A A2 dc|
"G"BGBd "Am"cAce|"G"de/f/ ge "D7"d2 c2|"G"Bd "C"ec "G"Bd "D7"cA|"G"G2 G>G G2:|

